X:1
T:Prelude in B minor
T:PRELUDEINBMINOR
T:TRANSCRIBED BY ALEXANDER SILOTI
T:Dedicated to Kyriena Siloti
T:BASED ON BWV 855a BY J.S. BACH
T:Public Domain in the EU
T:Public Domain in the EU
C:Bach
Z:Public Domain in the EU
%%score { ( 1 4 ) | ( 2 3 ) }
L:1/8
Q:1/2=50
M:4/4
K:D
V:1 treble nm="Piano" snm="Pno"
V:4 treble 
V:2 bass 
V:3 bass 
V:1
!p!"^sempre legato" B/!<(!d/e/f/ e/f/e/d/ B/d/e/f/ e/f/e/d/!<)! | %1
 B/!2!e/!3!f/!5!g/ f/g/f/e/ B/e/f/g/ f/g/f/e/ |!>(! ^A/c/d/e/ d/e/d/c/ A/c/d/e/ d/e/d/c/ | %3
 B/!>)!d/e/f/ e/f/e/d/ B/d/e/f/ e/f/e/d/ |!mp! G/c/d/e/ d/e/d/c/!>(! F/c/d/e/ d/e/d/c/ | %5
 F/B/c/d/ c/d/c/B/!>)! E/B/c/d/ c/d/c/B/ | E/!<(!c/d/e/ d/e/d/c/ D/d/e/f/ e/f/e/d/!<)! | %7
 G/B/c/d/ c/d/c/B/ G/c/d/e/ d/e/d/c/ |!>(! G/e/f/g/ f/g/f/e/ F/f/g/a/ g/a/g/f/!>)! | %9
!mf! E/^g/!<(!a/b/ a/b/a/g/ e/^a/b/c'/ b/c'/b/a/!<)! | %10
!>(! d/b/c'/d'/ c'/d'/c'/b/!>)! B/d/e/f/!<(! e/f/e/d/ | G/e/f/g/ f/g/f/e/!<)! =c/f/g/a/ g/a/g/f/ | %12
!>(! B/g/a/b/ a/b/a/g/!>)! G/B/c/d/ c/d/c/B/ |!<(! E/c/d/e/ d/e/d/c/ A/^d/e/f/ e/f/e/d/!<)! | %14
 G/e/f/g/ !3!f/!5!g/!3!f/!2!e/!f! =d/!2!e/!3!f/!5!g/ f/g/f/e/ | %15
 c/e/f/g/ f/g/f/e/ B/e/f/g/ f/g/f/e/ |!>(! ^A/e/f/g/ f/g/f/e/ A/e/f/g/ f/g/f/e/!>)! | %17
!mf!"^sempre ritenuto e diminuendo" =A/^d/e/f/ e/f/e/d/ ^G/B/c/=d/ c/d/c/B/ | %18
 =G/c/d/e/ d/e/d/c/ F/B/c/d/ c/d/c/B/ | ^E/B/c/d/ c/d/c/B/ F/c/d/=e/ d/e/d/c/ | %20
"^sempre più ritenuto al fine" F/B/c/!4!d/ c/d/c/B/ B/^d/e/f/ e/f/e/d/ | %21
 B/e/f/g/ f/g/f/e/ !1-5!^A/!3!E/F/!4!G/ F/G/F/!1!E/ :|!pp! !fermata!!2![^DFB]8 |] %23
V:2
!ped! !arpeggio![B,,D,F,]2 z2!ped-up!!ped! !arpeggio![F,B,]2 z2!ped-up! | %1
!ped! !arpeggio![B,,E,G,]2 z2 z4!ped-up! | %2
!ped! !arpeggio![B,,F,]2 z2!ped-up!!ped! !arpeggio![F,C]2 z2!ped-up! | %3
!ped! !arpeggio![B,,F,]2 z2 z4!ped-up! | %4
!ped! !arpeggio![B,,E,D]2 z2!ped-up!!ped! !arpeggio![A,,E,C]2 z2!ped-up! | %5
"_sim."!ped! !arpeggio![A,,D,C]2 z2!ped-up!!ped! !arpeggio![G,,D,B,]2 z2!ped-up! | %6
!ped! !arpeggio![G,,C,A,]2 z2!ped-up!!ped! !arpeggio![F,,D,A,]2 z2!ped-up! | %7
!ped! !arpeggio![E,,B,,G,]2 z2!ped-up!!ped! !arpeggio![A,,E,C]2 z2!ped-up! | %8
!ped! !arpeggio![D,,A,,E,]2 z2!ped-up!!ped! !arpeggio![D,F,A,D]2 z2!ped-up! | %9
!ped! !arpeggio![D,E,^G,B,]2 z2!ped-up!!ped! !arpeggio![C,F,^A,F]2 z2!ped-up! | %10
!ped! !arpeggio![B,,F,D]2 z2!ped-up!!ped! !arpeggio![F,B,DF]2 z2!ped-up! | %11
!ped! !arpeggio![B,,E,G,=C]2 z2!ped-up!!ped! !arpeggio![A,,D,F,D]2 z2!ped-up! | %12
!ped! !arpeggio![G,,D,B,]2 z2!ped-up!!ped! !arpeggio![D,G,B,D]2 z2!ped-up! | %13
!ped! !arpeggio![G,,C,E,A,]2 z2!ped-up!!ped! !arpeggio![F,,B,,^D,B,]2 z2!ped-up! | %14
!ped! !arpeggio![E,,B,,G,]2 z2!ped-up!!ped! !arpeggio![B,,E,G,B,]2 z2!ped-up! | %15
!ped! !arpeggio![^A,,E,G,C]2 z2!ped-up!!ped! !arpeggio![D,G,B,D]2 z2!ped-up! | %16
!ped! !arpeggio![C,G,^A,E]2 z2!ped-up!!ped! !arpeggio![F,,E,A,]2 z2!ped-up! | %17
!ped! (F,,/4^D,/4B,/) z z2!ped-up!!ped! (^E,,/4B,,/4^G,/) z z2!ped-up! | %18
!ped! (=E,,/4B,,/4=G,/) z z2!ped-up!!ped! (F,,/4D,/4B,/) z z2!ped-up! | %19
!ped! (3(F,,/4C,/4^G,/4B,/) z z2!ped-up!!ped! (3(F,,/4C,/4F,/4^A,/) z z2!ped-up! | %20
!ped! (3(B,,,/4B,,/4F,/4D/) z z2!ped-up!!ped! (3(B,,/4F,/4=A,/4^D/) z z2!ped-up! | %21
!ped! (3(B,,/4E,/4G,/4E/) z z2!ped-up!!ped! (3(B,,/4E,/4G,/4C/) z z2!ped-up! :| %22
 !fermata![B,,F,B,]8 |] %23
V:3
 B,4 D4 | C8 | C4 E4 | D8 | x8 | x8 | x8 | x8 | x8 | x8 | x8 | x8 | x8 | x8 | x8 | x8 | x8 | x8 | %18
 x8 | x8 | x8 | x8 :| x8 |] %23
V:4
 x8 | x8 | x8 | x8 | G4 F4 | F4 E4 | E4 D4 | G4 G4 | G4 F4 | E4 e4 | d4 B4 | G4 =c4 | B4 G4 | %13
 E4 A4 | G4 d4 | c4 B4 | ^A4 A4 | A4 ^G4 | G4 F4 | ^E4 F4 | F4 B4 | B4 ^A4 :| x8 |] %23

